X: 28631
T: Music In The Glen
R: reel
M: 4/4
K: Gmajor
|:G2BG E/F/G dc|BDGB AGAB|c2ec BdGB|cABG AGE2|
GABG E/F/G dc|BDGB AGAB|cdef gfge|1 dcBA G2(3DEF:|2 dcBA G2zA||
BG~G2 EGdG|BGDG cAFA|BGdG eG(3def|gdBG AGEG|
BGdG eGd2|gfgb afdf|gefd eBdB|cABG AGE2|
BG~G2 eGdG|BGdG cAFA|BGdG eG(3def|gdBG AGE2|
BGdG eGdf|gfgb afdf|g2fg egdB|cABG AGEF||

